X: 30646
T: Ookpik
R: waltz
M: 3/4
K: Eminor
L:1/4
"Em"z3|z3|e>d e/f/|edB/A/|B>A B/A/|G/F/E>B,|EGB|AFD|E3-|E3-|E3|"D"z2D||
|:"G"G> F G/B/|"D"A F D|"G"G3-|G2 d|"Em"e>d e/f/|edB|"G"d3-|d2d|
"Em"e>d e/f/|e d B/A/|B>A B/A/|G/F/ E B,|"C"EGB|"D"A(3F/G/^G/A|"G"G3-|1 G2D:|2 G3||
"Em"eB/B/B/B/|BAG/B/|dBA|B3|"Am"AA/A/A/A/|BAG|"Em"EDB,/D/|E3|
"Em"eB/B/B/B/|BAG/B/|dBA|B3|"Am"AA/A/A/A/|BAG|"Em"EDB,/D/|E3|"D"D3||
|:S"G"G> F G/B/|"D"A F D|"G"G3-|G2 d|"Em"e>d e/f/|edB|"G"d3-|d2d|
"Em"e>d e/f/|e d B/A/|B>A B/A/|G/F/ E B,|"C"EGB|"D"A(3F/G/^G/AO|"G"G3-|1 G2D:|2 G3||
"Em"eB/B/B/B/|BAG/B/|dBA|B3|"Am"AA/A/A/A/|BAG|"Em"EDB,/D/|E3|
"Em"eB/B/B/B/|BAG/B/|dBA|B3|"Am"AA/A/A/A/|BAG|"Em"EDB,/D/|E3|"D D.S. al Coda"D3||
O||"G"G>F (3G/F/=F/|"Em"E2B,|"C"EGB|"D"AFD|"Em"[E3B,3]-|[E3B,3]||








